svg/fluentui-system-icons/ic_fluent_text_hanging_24_filled.svg

<svg width="24" height="24" viewBox="0 0 24 24" fill="none" xmlns="http://www.w3.org/2000/svg">
<path d="M21 5C21.5523 5 22 5.44772 22 6C22 6.55228 21.5523 7 21 7H3C2.44772 7 2 6.55228 2 6C2 5.44772 2.44772 5 3 5H21ZM14 17C14.5523 17 15 17.4477 15 18C15 18.5523 14.5523 19 14 19H3C2.44772 19 2 18.5523 2 18C2 17.4477 2.44772 17 3 17H14ZM15 12C15 11.4477 14.5523 11 14 11H3C2.44772 11 2 11.4477 2 12C2 12.5523 2.44772 13 3 13H14C14.5523 13 15 12.5523 15 12ZM19.2929 13.2929C19.6834 12.9024 20.3166 12.9024 20.7071 13.2929C21.0976 13.6834 21.0976 14.3166 20.7071 14.7071L19.4142 16L20.7071 17.2929C21.0976 17.6834 21.0976 18.3166 20.7071 18.7071C20.3166 19.0976 19.6834 19.0976 19.2929 18.7071L17.2929 16.7071C16.9024 16.3166 16.9024 15.6834 17.2929 15.2929L19.2929 13.2929Z" fill="#212121"/>
</svg>

<svg xmlns="http://www.w3.org/2000/svg" width="24" height="24"><path d="M21 5a1 1 0 1 1 0 2H3a1 1 0 0 1 0-2h18Zm-7 12a1 1 0 1 1 0 2H3a1 1 0 1 1 0-2h11Zm1-5a1 1 0 0 0-1-1H3a1 1 0 1 0 0 2h11a1 1 0 0 0 1-1Zm4.293 1.293a1 1 0 0 1 1.414 1.414L19.414 16l1.293 1.293a1 1 0 0 1-1.414 1.414l-2-2a1 1 0 0 1 0-1.414l2-2Z"/></svg>
